X: 80
T: Preludium F-dur
C: Maria Szymanowska
%%abc-version 2.0
%%abcx-abcm2ps-target-version 5.9.1 (29 Sep 2008)
%%abc-creator hum2abc beta
%%abcx-conversion-date 2021/10/04 07:38:42
%%abc-edited-by Anna Matuszewska
%%abcx-initial-encoding-date 2020-07-20
%%humdrum-veritas 3724620565
%%humdrum-veritas-data 41865629
%%linebreak <none>
%%barnumbers 0
L: 1/16
M: 6/8
N: Derived from pl-kozmzk--mzk-m-31--007_szymanowska-maria--preludium-f-dur.krn
%%staves {1 2}
V: 1 clef=treble
V: 2 clef=bass
K: F
[V:1] x4x4z ^GBA | 
[V:2] x4x4z2 z2 | 
[V:1] F2 z Bdc A2 z egf | 
[V:2] {/F,,/} F,A,!accent!C z z2 {/F,,/} F,A,!accent!C z z2 | 
[V:1] c'^gae=gf d2 z ^cdB | 
[V:2] {/A,,/} A,C!accent!F z z2 {/B,,/} B,D!accent!G z z2 | 
[V:1] G2 z ^fgd B2 z bag | 
[V:2] {/B,,/} B,DG z z2 {/B,,/} B,DG z z2 | 
[V:1] fedc[Be]c [A2f2] z ^GBA | 
[V:2] {/C,,/} C,B,C z z2 {/F,,/} F,A,C z z2 | 
[V:1] F2 z =Bdc A2 z egf | 
[V:2] {/F,,/} F,A,C z z2 {/F,,/} F,A,C z z2 | 
[V:1] {/c/} c'2bagf ed z ^cdB | 
[V:2] {/A,,/} A,CF z z2 {/B,,/} B,DG z z2 | 
[V:1] G2 z ^fgd B2 z bag | 
[V:2] {/B,,/} B,DG z z2 {/B,,/} B,DG z z2 | 
[V:1] fedc[Be]c [A2f2] z ^GA^c | 
[V:2] {/C,,/} C,B,C z z2 {/F,,/} F,A,C z z2 | 
[V:1] e2 z ^gba [d2f2] z ^gba | 
[V:2] {/^C,/} ^CGA z z2 {/D,/} DFA z z2 | 
[V:1] [d2f2] z ^fag [c2e2] z ^fag | 
[V:2] {/=B,,/} =B,^FG z z2 {/C,/} CEG z z2 | 
[V:1] [d2f2=b2] z bag [c2e2c'2-]c'=bag | 
[V:2] {/G,,/} G,DF z z2 {/G,,/} G,CE z z2 | 
[V:1] !accent![=B2d2a2-]agfd !accent![E2G2d2-]dc_BG | 
[V:2] {/B,,,/} G,,=B,,G, z z2 {/C,,/} C,_B,C z z2 | 
[V:1] F2 z =Bdc A2 z egf | 
[V:2] {/F,,/} F,A,C z z2 {/F,,/} F,A,C z z2 | 
[V:1] !accent!c'^gae=gf d2 z ^cdB | 
[V:2] {/A,,/} A,CF z z2 {/B,,/} B,DG z z2 | 
[V:1] G2 z ^fgd B2 z ba!fermata!g | 
[V:2] {/B,,/} B,DG z z2 {/B,,/} B,DG z !fermata!z2 | 
[V:1] B2 z ^fg_e B2 z _d'c'b | 
[V:2] {/B,,/} B,_DG z z2 {/_E,,/} _E,B,_D z z2 | 
[V:1] _a2 z =Bc_A _E2 z d_ec | 
[V:2] {/_A,,/} _A,C_E z z2 {/A,,/} =A,DE z z2 | 
[V:1] _A2 z c'b_a =ab z =ABG | 
[V:2] {/_A,,/} _A,C_E z z2 {/_E,,/} _E,B,D z z2 | 
[V:1] _E2 z c_dB G2 z _d'c'b | 
[V:2] {/_E,,/} _E,B,_D z z2 {/B,,/} E,B,_D z z2 | 
[V:1] _agf_ef_d c2 z =B_dc | 
[V:2] {/G,,/} G,B,_D z z2 {/_A,,/} _A,C_E z z2 | 
[V:1] G2 z =b_d'c' _a2 z _AGF | 
[V:2] {/=E,,/} E,B,C z z2 {/F,,/} F,_A,C z z2 | 
[V:1] E2>F2GF2< E2G!accent!_dc | 
[V:2] {/_D,,/} _D,F,=B, z z2 {/C,,/} C,E,C z z2 | 
[V:1] !accent!B2>!wedge!_A2!wedge!G!wedge!F2< E2G!accent!_dc | 
[V:2] {/_D,,/} _D,F,=B, z z2 {/C,,/} C,E,C z z2 | 
[V:1] =B =b_af_d=B afdB_AF | 
[V:2] [_D,,12_D,12] | 
[V:1] EGcF_Ad GBe_Acf | 
[V:2] [C,,12C,12]- | 
[V:1] B_dg_Acf GBeF_A_d | 
[V:2] [C,,12C,12] | 
[V:1] EGc_DEB C_E_AB,_DG | 
[V:2] [C,,12C,12]- | 
[V:1] x12 | 
[V:2] [C,,12C,12] & _A,CFG,B,=E F,_A,_DF,A,=B, | 
[V:1] x12 | 
[V:2] E,G,CE,G,C F,G,DF,G,D & {/C,,/}C,6!trill!=B,,6 | 
[V:1] x12 | 
[V:2] E,G,CE,G,C F,=B,FF,B,F & {/A,,/B,,/}C,6[_D,,6_D,6] | 
[V:1] G,CEGCE GcEGce | 
[V:2] [C,,6C,6][C,,4C,4]z2 | 
[V:1] Gcegec/c'/ bgecBG | 
[V:2] z12 | 
[V:1] ^GABAGA =GFEFdc | 
[V:2] {/F,,/} F,A,C z z2 {/F,,/} F,A,C z z2 | 
[V:1] ^GAba=gf ed^cded | 
[V:2] {/A,,/} A,CF z z2 {/B,,/} B,DG z z2 | 
[V:1] =cBABcB AG^FGb3/g/ | 
[V:2] {/B,,/} B,DG z z2 {/B,,,/} B,,D,G, z z2 | 
[V:1] fedc!accent![Be]c [A2f2] z ^GA^c | 
[V:2] {/C,,/} C,B,C z z2 {/F,,/} F,A,C z z2 | 
[V:1] e2 z ^gba [d2f2] z ^gba | 
[V:2] {/^C,/} ^C[EG]A z z2 {/D,/} DFA z z2 | 
[V:1] [d2f2] z ^fag [c2e2] z ^fag | 
[V:2] {/=B,,/} =B,FG z z2 {/C,/} CEG z z2 | 
[V:1] [d2=f2=b2] z bag [c2e2c'2-]c'=bag | 
[V:2] {/G,,/} G,DF z z2 {/G,,/} G,CE z z2 | 
[V:1] [=B2d2a2-]agfd [E2G2d2-]dc_BG | 
[V:2] {/G,,,/} G,,=B,,G, z z2 {/C,,/} C,B,C z z2 | 
[V:1] F2 z !accent!dcA F2 z !accent!gfc | 
[V:2] {/F,,/} F,A,C z z2 {/F,,/} F,A,C z z2 | 
[V:1] A2 z !accent!agf ed z !accent!edB | 
[V:2] {/A,,/} A,CF z z2 {/B,,/} B,DG z z2 | 
[V:1] G2 z !accent!agd B2!accent!_d'2c'b | 
[V:2] {/_B,,/} B,DG z z2 {/B,,/} B,_DG z z2 | 
[V:1] _agf!accent![_deg]c!accent![GBeg][A6f6]- | 
[V:2] {/C,,/} C,B,C z z2 F,,,A,,,C,,F,,A,,C, | 
[V:1] [A2f2]>!accent!e2gf2< A2_egf | 
[V:2] F,A,C z z2 {/F,,/} F,_EF z z2 | 
[V:1] B2>=e2gf2< B2_dfe | 
[V:2] {/F,,/} F,DF z z2 {/F,,/} F,_DE z z2 | 
[V:1] A2>c2gf2< F2Adc | 
[V:2] {/F,,/} F,=B,!accent!C z z2 {/F,,/} F,A,!accent!C z z2 | 
[V:1] E2>G2dc2< E2G_dc | 
[V:2] {/F,,/} F,=B,!accent!C z z2 {/F,,/} F,_D!accent!C z z2 | 
[V:1] A,2>C2GF2< A,2_E=GF | 
[V:2] {/F,,,/} F,,E,F, z z2 {/F,,,/} F,,_G,F, z z2 | 
[V:1] B,2>D2GF2< B,2_DFE | 
[V:2] {/F,,,/} F,,E,F, z z2 {/F,,,/} F,,E,F, z z2 | 
[V:1] A,2>C2GF2< F,2A,DC | 
[V:2] {/F,,,/} F,,E,F, z z2 {/F,,,/} F,,=B,,C, z z2 | 
[V:1] x12 | 
[V:2] E,2>G,2DC2< E,2G,DC & {/F,,,/} F,,=B,,C, z z2 {/F,,,/} F,,_B,,C, z z2 | 
[V:1] A,2>C2GF2< B,2_DFE | 
[V:2] {/F,,,/} F,,E,F, z z2 {/F,,,/} F,,E,F, z z2 | 
[V:1] A,2>C2GF2< B,2_DFE | 
[V:2] {/F,,,/} F,,E,F, z z2 {/F,,,/} F,,E,F, z z2 | 
[V:1] A,FCAFC A,AFCA,A | 
[V:2] {/F,,,/} F,,2{/E,/}F,2{/F,,,/}F,,2 {/E,/} F,2{/F,,,/}F,,2{/E,/}F,2 | 
[V:1] [A,4C4F4]z2[c4e4g4c'4]z2 | 
[V:2] F,,,4z2[C,4C4]z2 | 
[V:1] !fermata![F8A8c8f8]x4 |]  
[V:2] !fermata![F,,8F,8]x4 |]  


